ir/chat-add.svg

<svg stroke-width="1.5" viewBox="0 0 24 24" fill="none" xmlns="http://www.w3.org/2000/svg" height="1em" width="1em">
  <path d="M9 12H12M15 12H12M12 12V9M12 12V15" stroke="currentColor" stroke-linecap="round" stroke-linejoin="round"/>
  <path d="M12 22C17.5228 22 22 17.5228 22 12C22 6.47715 17.5228 2 12 2C6.47715 2 2 6.47715 2 12C2 13.8214 2.48697 15.5291 3.33782 17L2.5 21.5L7 20.6622C8.47087 21.513 10.1786 22 12 22Z" stroke="currentColor" stroke-linecap="round" stroke-linejoin="round"/>
</svg>

<svg stroke-width="1.5" viewBox="0 0 24 24" fill="none" xmlns="http://www.w3.org/2000/svg" height="1em" width="1em">
  <path d="M9 12h3m3 0h-3m0 0V9m0 3v3m0 7c5.523 0 10-4.477 10-10S17.523 2 12 2 2 6.477 2 12c0 1.821.487 3.53 1.338 5L2.5 21.5l4.5-.838A9.955 9.955 0 0 0 12 22Z" stroke="currentColor" stroke-linecap="round" stroke-linejoin="round"/>
</svg>
